docs/styles/img/icons/new.svg

<svg width="105" height="38" viewBox="0 0 105 38" fill="none" xmlns="http://www.w3.org/2000/svg">
<rect width="104.82" height="37.6277" fill="#F5EEE4"/>
<path d="M29.8916 12.9312V25.0849H32.3938V16.9484H32.4279L37.4834 25.0849H40.1559V12.9312H37.6537V21.0847H37.6196L32.547 12.9312H29.8916Z" fill="#323232"/>
<path d="M45.9129 12.9312V25.0849H55.1389V22.838H48.5854V19.8591H54.475V17.7824H48.5854V15.1781H55.0027V12.9312H45.9129Z" fill="#323232"/>
<path d="M71.9301 25.0849L75.1983 12.9312H72.5769L70.5853 21.306H70.5513L68.4746 12.9312H65.9724L63.8616 21.2039H63.8276L61.9041 12.9312H59.2316L62.4488 25.0849H65.1553L67.1809 16.8122H67.215L69.2746 25.0849H71.9301Z" fill="#323232"/>
</svg>

<svg width="105" height="38" fill="none" xmlns="http://www.w3.org/2000/svg"><path fill="#F5EEE4" d="M0 0h104.82v37.628H0z"/><path d="M29.892 12.931v12.154h2.502v-8.137h.034l5.055 8.137h2.673V12.93h-2.502v8.154h-.034l-5.073-8.154h-2.655zm16.021 0v12.154h9.226v-2.247h-6.554v-2.979h5.89v-2.077h-5.89v-2.604h6.418v-2.247h-9.09zM71.93 25.085l3.268-12.154h-2.621l-1.992 8.375h-.034l-2.076-8.375h-2.503l-2.11 8.273h-.034l-1.924-8.273h-2.672l3.217 12.154h2.706l2.026-8.273h.034l2.06 8.273h2.655z" fill="#323232"/></svg>
